nova/resources/svg/fluent/desktop.svg

<svg viewBox="0 0 24 24" fill="none" xmlns="http://www.w3.org/2000/svg">
<path d="M6.75 22.0004C6.33579 22.0004 6 21.6647 6 21.2504C6 20.8707 6.28215 20.557 6.64823 20.5073L6.75 20.5004L8.499 20.5V18.002L4.25 18.0023C3.05914 18.0023 2.08436 17.0771 2.00519 15.9063L2 15.7523V5.25C2 4.05914 2.92516 3.08436 4.09595 3.00519L4.25 3H19.7488C20.9397 3 21.9145 3.92516 21.9936 5.09595L21.9988 5.25V15.7523C21.9988 16.9431 21.0737 17.9179 19.9029 17.9971L19.7488 18.0023L15.499 18.002V20.5L17.25 20.5004C17.6642 20.5004 18 20.8362 18 21.2504C18 21.6301 17.7178 21.9439 17.3518 21.9936L17.25 22.0004H6.75ZM13.998 18.002H9.998L9.999 20.5004H13.999L13.998 18.002ZM19.7488 4.5H4.25C3.8703 4.5 3.55651 4.78215 3.50685 5.14823L3.5 5.25V15.7523C3.5 16.132 3.78215 16.4458 4.14823 16.4954L4.25 16.5023H19.7488C20.1285 16.5023 20.4423 16.2201 20.492 15.854L20.4988 15.7523V5.25C20.4988 4.8703 20.2167 4.55651 19.8506 4.50685L19.7488 4.5Z" fill="currentColor"/>
</svg>

<svg fill="none" viewBox="0 0 24 24" xmlns="http://www.w3.org/2000/svg"><path d="M6.75 22a.75.75 0 0 1-.102-1.493l.102-.007h1.749v-2.498H4.25a2.25 2.25 0 0 1-2.245-2.096L2 15.752V5.25a2.25 2.25 0 0 1 2.096-2.245L4.25 3h15.499a2.25 2.25 0 0 1 2.245 2.096l.005.154v10.502a2.25 2.25 0 0 1-2.096 2.245l-.154.005h-4.25V20.5h1.751a.75.75 0 0 1 .102 1.494L17.25 22H6.75Zm7.248-3.998h-4l.001 2.498h4l-.001-2.498ZM19.748 4.5H4.25a.75.75 0 0 0-.743.648L3.5 5.25v10.502c0 .38.282.694.648.743l.102.007h15.499a.75.75 0 0 0 .743-.648l.007-.102V5.25a.75.75 0 0 0-.648-.743l-.102-.007Z" fill="currentColor"/></svg>
